X:400
T: MARIA THERESIA ZEUCH NICHT IN DEN KRIEG
N: E0327
O: Europa, Mitteleuropa, Deutschland
R: historisches Lied, Siebenjaehriger Krieg (1756)
M: 3/4
L: 1/8
K: C
GAB | c3GG2 | G3EG2 | F2E2D2 | C2z2
GAB | c3GG2 | G3EG2 | F2E2D2 | C2z2
E2 | D2D2D2 | D3EF2 | G3FE2 | D2z4
c3GG2 | G3EG2 | F2E2D2 | C2z2

